X: 40566
T: Tommy Reck's
R: polka
M: 2/4
K: Dmajor
|:Ad f/g/f/e/|dF A>d|cE GB|AD FA|
Ad f/g/f/e/|dF A>d|cA GE|FA D2:|
|:fd ~d2|cB ~B2|eB cB|BA FA|
fd ~d2|cB ~B2|Be Bc|d2 d2:|

